X:1
T:By the Waters of Babylon
H:Modified from the original.
M:4/4
L:1/4
K:C
"^1" (AG/F/E) F| (GF/E/) D E| (FE/D/) C D| E E A, z|
w:    By___  the  wa__ters the wa__ters of Ba-by-lon,
"^2" c c c c| (cB) z B| (BA) z A| A ^G A2|
w:  We lay down and wept_ and wept_ for thee Zi-on,
"^3" E3/2 F/2 G A| D3/2 E/2 F G| C3/2 D/2 E F| E E A,2:|]
w:We re-mem-ber thee, re-mem-ber thee, re-mem-ber thee Zi-on.


